X:1
T:Title
%%score 1 { 2 | 3 }
L:1/8
Q:1/4=108
M:4/4
K:E
V:1 treble nm="Grand Piano, Soprano"
V:2 bass nm="Choir Pad, Till the Savior Comes"
V:3 bass 
V:1
 [EG]4 [EG]2 [EG]2 | [EA]3 [EA] [EG]2 E2 | [DF]3 [DF] [DB]2 [FA]2 | [EG]6 z2 | [EG]4 [EG]2 [EG]2 | %5
w: By~William~Howard~Doane * *|||||
 [Ec]3 [Ec] [EB]2 [EG]2 | [DF]3 [FB] [Fd]2 [Ec]2 | [DB]6 z2 | [Ge]3 [Ge] [Bd]2 [Ac]2 | %9
w: ||||
 [GB]4 [EG]4 | [DF] .[FA]3 [FA] .[Ac]3 | [GB]4 [EG]2 z2 | [Ge]3 [Ge] [Ad]2 [Ee]2 | %13
w: ||||
 [Ee]2 [EAc]2 [FA]2 [CF]2 | [B,E]3 [B,E] [EG]2 [DF]2 | E8 |] %16
w: |||
V:2
 B,4 B,2 B,2 | C3 C B,2 G,2 | B,3 B, F,2 B,2 | B,6 z2 | B,4 B,2 B,2 | A,3 A, G,2 B,2 | %6
 B,3 D B,2 ^A,2 | B,6 z2 | B,3 B, E2 E2 | E4[K:bass] B,4 | B, .B,3 B, .D3 | E4 B,2 z2 | %12
 B,3 B, B,2 B,2 | C2 E2 C2 A,2 | G,3 G, B,2 A,2 | G,8 |] %16
V:3
 E,4 E,2 E,2 | E,3 E, E,2 E,2 | B,,3 B,, B,,2 B,,2 | E,6 z2 | E,4 E,2 E,2 | E,3 E, E,2 E,2 | %6
 F,3 F, F,2 F,2 | B,,6 z2 | E,3 E, A,,2 C,2 | E,4 E,4 | B,, .B,,3 B,, .B,,3 | E,4 E,2 z2 | %12
 E,3 E, F,2 G,2 | A,2 A,2 A,,2 A,,2 | B,,3 B,, B,,2 B,,2 | E,8 |] %16

